icons/svg/seamark_big/fog_signal_additional_big_night.svg

<?xml version="1.0" encoding="UTF-8" standalone="no"?>
<svg
   xmlns:dc="http://purl.org/dc/elements/1.1/"
   xmlns:cc="http://creativecommons.org/ns#"
   xmlns:rdf="http://www.w3.org/1999/02/22-rdf-syntax-ns#"
   xmlns:svg="http://www.w3.org/2000/svg"
   xmlns="http://www.w3.org/2000/svg"
   xmlns:sodipodi="http://sodipodi.sourceforge.net/DTD/sodipodi-0.dtd"
   xmlns:inkscape="http://www.inkscape.org/namespaces/inkscape"
   width="1060"
   height="1060"
   id="svg2"
   version="1.1"
   inkscape:version="0.48.4 r9939"
   sodipodi:docname="fog_signal_big.svg">
  <defs
     id="defs13">
    <inkscape:path-effect
       effect="gears"
       id="path-effect3774"
       is_visible="true"
       teeth="6"
       phi="-1.2" />
    <inkscape:path-effect
       effect="bend_path"
       id="path-effect3772"
       is_visible="false"
       bendpath="m 95.790098,316.51174 c 144.429032,-206.42506 223.313032,-11.7428 339.548092,0"
       prop_scale="1.19"
       scale_y_rel="false"
       vertical="false"
       bendpath-nodetypes="cc" />
  </defs>
  <sodipodi:namedview
     pagecolor="#ffffff"
     bordercolor="#666666"
     borderopacity="1"
     objecttolerance="10"
     gridtolerance="10"
     guidetolerance="10"
     inkscape:pageopacity="0"
     inkscape:pageshadow="2"
     inkscape:window-width="1920"
     inkscape:window-height="1004"
     id="namedview11"
     showgrid="false"
     inkscape:zoom="0.40689655"
     inkscape:cx="840.2413"
     inkscape:cy="675.66887"
     inkscape:window-x="1680"
     inkscape:window-y="0"
     inkscape:window-maximized="1"
     inkscape:current-layer="svg2"
     inkscape:snap-object-midpoints="true" />
  <metadata
     id="metadata2975">image/svg+xmlen<rdf:RDF>
  <cc:Work
     rdf:about="">
    <dc:format>image/svg+xml</dc:format>
    <dc:type
       rdf:resource="http://purl.org/dc/dcmitype/StillImage" />
    <dc:title></dc:title>
  </cc:Work>
</rdf:RDF>
</metadata>
  <path
     style="font-size:medium;font-style:normal;font-variant:normal;font-weight:normal;font-stretch:normal;text-indent:0;text-align:start;text-decoration:none;line-height:normal;letter-spacing:normal;word-spacing:normal;text-transform:none;direction:ltr;block-progression:tb;writing-mode:lr-tb;text-anchor:start;baseline-shift:baseline;opacity:0.82399997999999997;color:#000000;fill:#d89cd8;fill-opacity:1;stroke:none;stroke-width:18.80177879000000019;marker:none;visibility:visible;display:inline;overflow:visible;enable-background:accumulate;font-family:Sans;-inkscape-font-specification:Sans;fill-rule:nonzero"
     d="m 54.5,811.8125 c -18.010639,-11.64938 -32.416522,-7.97855 -43.875,8.21875 16.195633,86.83362 54.468314,165.94293 108.78125,231.28125 15.03376,-1.343 29.59259,-3.7454 34.1875,-28.375 C 104.09463,963.3477 69.226437,891.143 54.5,811.8125 z"
     id="path2995"
     inkscape:connector-curvature="0"
     sodipodi:nodetypes="ccccc" />
  <path
     style="font-size:medium;font-style:normal;font-variant:normal;font-weight:normal;font-stretch:normal;text-indent:0;text-align:start;text-decoration:none;line-height:normal;letter-spacing:normal;word-spacing:normal;text-transform:none;direction:ltr;block-progression:tb;writing-mode:lr-tb;text-anchor:start;baseline-shift:baseline;opacity:0.82399997999999997;color:#000000;fill:#d89cd8;fill-opacity:1;stroke:none;stroke-width:18.80177879000000019;marker:none;visibility:visible;display:inline;overflow:visible;enable-background:accumulate;font-family:Sans;-inkscape-font-specification:Sans;fill-rule:nonzero"
     d="m 132.9375,797.125 c -15.26303,-10.26776 -28.98352,-10.04626 -40.15625,7.5 13.53566,72.57345 45.50952,138.70118 90.90625,193.3125 15.27296,0.42976 28.93868,-2.15404 31.28125,-25.96875 C 173.98191,922.61977 145.12963,862.82496 132.9375,797.125 z"
     id="path2995-9"
     inkscape:connector-curvature="0"
     sodipodi:nodetypes="ccccc" />
  <path
     style="font-size:medium;font-style:normal;font-variant:normal;font-weight:normal;font-stretch:normal;text-indent:0;text-align:start;text-decoration:none;line-height:normal;letter-spacing:normal;word-spacing:normal;text-transform:none;direction:ltr;block-progression:tb;writing-mode:lr-tb;text-anchor:start;baseline-shift:baseline;opacity:0.82399997999999997;color:#000000;fill:#d89cd8;fill-opacity:1;stroke:none;stroke-width:18.80177879000000019;marker:none;visibility:visible;display:inline;overflow:visible;enable-background:accumulate;font-family:Sans;-inkscape-font-specification:Sans;fill-rule:nonzero"
     d="m 205.09375,783.59375 c -15.93617,-11.78747 -28.1459,-8.20339 -37.53125,7.03125 11.11467,59.5781 37.38645,113.87834 74.65625,158.71875 14.8341,-0.30765 28.14104,-2.95096 29.25,-24.25 -33.16222,-39.93458 -56.5154,-88.32549 -66.375,-141.5 z"
     id="path2995-9-7"
     inkscape:connector-curvature="0"
     sodipodi:nodetypes="ccccc" />
</svg>

<svg width="1060" height="1060" viewBox="0 0 1060 1060" fill="none" xmlns="http://www.w3.org/2000/svg">
<path opacity="0.824" d="M54.5 811.813C36.4894 800.163 22.0835 803.834 10.625 820.031C26.8206 906.865 65.0933 985.974 119.406 1051.31C134.44 1049.97 148.999 1047.57 153.594 1022.94C104.095 963.348 69.2264 891.143 54.5 811.813Z" fill="#D89CD8"/>
<path opacity="0.824" d="M132.938 797.125C117.674 786.857 103.954 787.079 92.7812 804.625C106.317 877.198 138.291 943.326 183.688 997.938C198.96 998.367 212.626 995.783 214.969 971.969C173.982 922.62 145.13 862.825 132.938 797.125Z" fill="#D89CD8"/>
<path opacity="0.824" d="M205.094 783.594C189.158 771.806 176.948 775.39 167.562 790.625C178.677 850.203 204.949 904.503 242.219 949.344C257.053 949.036 270.36 946.393 271.469 925.094C238.307 885.159 214.953 836.768 205.094 783.594Z" fill="#D89CD8"/>
</svg>
